X:5
T:La demoiselle de Montréal (pour Perrine)
C:Bruno Scherrer
M:3/4
K:Ebmaj
L:1/8
V:1
"^A""Fm7"z.A2.c2.e|"Bb7"(d2B2A{__B}_B-|"EbΔ"B6)|z6|
"Fm7"z.A2.c2.e|"Bb7"(d2e2f2|"EbΔ"{_d}[B=dg]6)|z6|
"G∅"z.c2._d2.=e|"C7"(g2a2b2|"Fm7"(4:3:4b2a2g2a2|"Abm"[ea_c']4)ba|
%%score (1 2)
V:1
x6 | x6 | (b4a2) | x6 | x6 | _gfe x3 | 
V:2
"^B""Eb"[Beg]6 | "Cb6"[_cea]6 | "Db6"[_df]6 | "Eb"[Beg]6 |"Cb6"[_ce]6 | "Db6"[_d]6 | 
%%score (1)
V:1
"^C""Abm7"z._c2._g2.e|"Db7"(f2e2_d{_f}=f-|"GbΔ"f6|"CbΔ"e6)|
"F∅"z.A2._c2.e|"Bb7"(d2B2A_G-|"Ebm7"_G6|"Eb7"G6)|
"Abm7"z(AB_c_de|"Db7"f2_g2a2|"GbΔ"{_f}=f4-fe/2_d/2|"CbΔ"e6)|
"F∅"z.e2.A2._c|e6|"Bb7"z.f2.A2.B|(f2edcB)|
"^A'""Fm7"z.A2.c2.e|"Bb7"(d2B2A{__B}_B-|"EbΔ"B6)|z6|
"Fm7"z.A2.c2.e|"Bb7"(d2e2f2|"EbΔ"{_d}[B=dg]6)|z6|
"G∅"z.c2._d2.=e|"C7"(g2a2b2|"Fm7"{__b}_b6|a6) | 
"F∅"(a3_c3 |"Fb7"B3g3|"EbΔ"{_d}=d6)|z2(cdcB|
"F∅"a3_c3 | "Fb7"B3g3)|"EbΔ".[dgb].[dgb]2.[dgb]2.[dgb]|.[dgb]2z4||
%%begintext
Thème
Solos
Reprise du thème avec répétition longue de la partie B (6 mesures*X), solo de guitare + solo de batterie + fin
%%endtext

